; generated by PrusaSlicer 2.7.4+win64 on 2024-06-07 at 13:55:54 UTC

; 

; external perimeters extrusion width = 0.42mm
; perimeters extrusion width = 0.44mm
; infill extrusion width = 0.44mm
; solid infill extrusion width = 0.44mm
; top infill extrusion width = 0.40mm
; first layer extrusion width = 0.42mm

; external perimeters extrusion width = 0.42mm
; perimeters extrusion width = 0.44mm
; infill extrusion width = 0.44mm
; solid infill extrusion width = 0.44mm
; top infill extrusion width = 0.40mm
; first layer extrusion width = 0.42mm

M201 X2000 Y2000 Z100 E5000 ; sets maximum accelerations, mm/sec^2
M203 X500 Y500 Z10 E60 ; sets maximum feedrates, mm / sec
M204 S500 T1000 ; sets acceleration (S) and retract acceleration (R), mm/sec^2
M205 X10.00 Y10.00 Z0.40 E5.00 ; sets the jerk limits, mm/sec
M205 S0 T0 ; sets the minimum extruding and travel feed rate, mm/sec

; printing object Form-Kubus id:0 copy 0
; stop printing object Form-Kubus id:0 copy 0
; printing object Form-Kubus id:1 copy 0
; stop printing object Form-Kubus id:1 copy 0

;TYPE:Custom
G90 ; use absolute coordinates
M83 ; extruder relative mode
M104 S150 ; set temporary nozzle temp to prevent oozing during homing
M140 S60 ; set final bed temp
G4 S30 ; allow partial nozzle warmup
G28 ; home all axis
G29 ; Probe 3 points and compensate
G1 Z50 F240
G1 X2.0 Y10 F3000
M104 S215 ; set final nozzle temp
M190 S60 ; wait for bed temp to stabilize
M109 S215 ; wait for nozzle temp to stabilize
G1 Z0.28 F240
G92 E0
G1 X2.0 Y140 E10 F1500 ; prime the nozzle
G1 X2.3 Y140 F5000
G92 E0
G1 X2.3 Y10 E10 F1200 ; prime the nozzle
G92 E0
G21 ; set units to millimeters
G90 ; use absolute coordinates
M83 ; use relative distances for extrusion
; Filament gcode
M107
;LAYER_CHANGE
;Z:0.2
;HEIGHT:0.2
G1 E-9 F1200
G1 Z.2 F9000
G1 X75.607 Y92.203
G1 Z.2
G1 E9 F2400
M204 S500
;TYPE:Skirt/Brim
;WIDTH:0.42
G1 F1080
G1 X77.5 Y91.623 E.06208
G1 X142.5 Y91.623 E2.03803
G1 X144.083 Y92.017 E.05115
G1 X145.297 Y93.107 E.05116
G1 X145.877 Y95 E.06208
G1 X145.877 Y125 E.94063
G1 X145.483 Y126.583 E.05115
G1 X144.393 Y127.797 E.05116
G1 X142.5 Y128.377 E.06208
G1 X77.5 Y128.377 E2.03803
G1 X75.917 Y127.983 E.05115
G1 X74.703 Y126.893 E.05116
G1 X74.123 Y125 E.06208
G1 X74.123 Y95 E.94063
G1 X74.517 Y93.417 E.05115
G1 X75.567 Y92.248 E.04927
G1 E-6.3 F1200
;WIPE_START
G1 F7200
G1 X75.607 Y92.203 E-.00953
G1 X77.5 Y91.623 E-.31348
G1 X92.513 Y91.623 E-2.37699
;WIPE_END
; printing object Form-Kubus id:1 copy 0
G1 X138.564 Y96.064 F9000
G1 E9 F2400
;TYPE:Perimeter
;WIDTH:0.419999
G1 F1080
G1 X141.436 Y96.064 E.09005
G1 X141.436 Y97.5 E.04502
G1 X141.436 Y123.936 E.82888
G1 X138.564 Y123.936 E.09005
G1 X138.564 Y96.124 E.87202
G1 X138.564 Y96.124 F9000
G1 X138.187 Y95.687
G1 F1080
G1 X141.813 Y95.687 E.11369
G1 X141.813 Y97.5 E.05685
G1 X141.813 Y124.313 E.8407
G1 X138.187 Y124.313 E.11369
G1 X138.187 Y95.747 E.89567
G1 X137.81 Y95.31 F9000
;TYPE:External perimeter
G1 F1080
G1 X142.19 Y95.31 E.13733
G1 X142.19 Y97.5 E.06867
G1 X142.19 Y124.69 E.85252
G1 X137.81 Y124.69 E.13733
G1 X137.81 Y95.37 E.91931
G1 E-6.3 F1200
;WIPE_START
G1 F7200
G1 X137.81 Y95.31 E-.0095
G1 X142.19 Y95.31 E-.6935
G1 X142.19 Y97.5 E-.34675
G1 X142.19 Y107.923 E-1.65025
;WIPE_END
G1 X141.315 Y96.96 F9000
G1 E9 F2400
;TYPE:Solid infill
;WIDTH:0.425971
G1 F1080
G1 X140.71 Y96.355 E.02725
G1 X140.168 Y96.355 E.01726
G1 X141.145 Y97.332 E.04401
G1 X141.145 Y97.874 E.01726
G1 X139.626 Y96.355 E.06842
G1 X139.085 Y96.355 E.01723
G1 X141.145 Y98.415 E.09279
G1 X141.145 Y98.957 E.01726
G1 X138.855 Y96.666 E.10317
G1 X138.855 Y97.208 E.01726
G1 X141.145 Y99.499 E.10317
G1 X141.145 Y100.04 E.01723
G1 X138.855 Y97.749 E.10317
G1 X138.855 Y98.291 E.01726
G1 X141.145 Y100.582 E.10317
G1 X141.145 Y101.124 E.01726
G1 X138.855 Y98.833 E.10317
G1 X138.855 Y99.375 E.01726
G1 X141.145 Y101.666 E.10317
G1 X141.145 Y102.207 E.01723
G1 X138.855 Y99.916 E.10317
G1 X138.855 Y100.458 E.01726
G1 X141.145 Y102.749 E.10317
G1 X141.145 Y103.291 E.01726
G1 X138.855 Y101 E.10317
G1 X138.855 Y101.541 E.01723
G1 X141.145 Y103.832 E.10317
G1 X141.145 Y104.374 E.01726
G1 X138.855 Y102.083 E.10317
G1 X138.855 Y102.625 E.01726
G1 X141.145 Y104.916 E.10317
G1 X141.145 Y105.458 E.01726
G1 X138.855 Y103.167 E.10317
G1 X138.855 Y103.708 E.01723
G1 X141.145 Y105.999 E.10317
G1 X141.145 Y106.541 E.01726
G1 X138.855 Y104.25 E.10317
G1 X138.855 Y104.792 E.01726
G1 X141.145 Y107.083 E.10317
G1 X141.145 Y107.624 E.01723
G1 X138.855 Y105.333 E.10317
G1 X138.855 Y105.875 E.01726
G1 X141.145 Y108.166 E.10317
G1 X141.145 Y108.708 E.01726
G1 X138.855 Y106.417 E.10317
G1 X138.855 Y106.959 E.01726
G1 X141.145 Y109.25 E.10317
G1 X141.145 Y109.791 E.01723
G1 X138.855 Y107.5 E.10317
G1 X138.855 Y108.042 E.01726
G1 X141.145 Y110.333 E.10317
G1 X141.145 Y110.875 E.01726
G1 X138.855 Y108.584 E.10317
G1 X138.855 Y109.125 E.01723
G1 X141.145 Y111.416 E.10317
G1 X141.145 Y111.958 E.01726
G1 X138.855 Y109.667 E.10317
G1 X138.855 Y110.209 E.01726
G1 X141.145 Y112.5 E.10317
G1 X141.145 Y113.042 E.01726
G1 X138.855 Y110.751 E.10317
G1 X138.855 Y111.292 E.01723
G1 X141.145 Y113.583 E.10317
G1 X141.145 Y114.125 E.01726
G1 X138.855 Y111.834 E.10317
G1 X138.855 Y112.376 E.01726
G1 X141.145 Y114.667 E.10317
G1 X141.145 Y115.208 E.01723
G1 X138.855 Y112.917 E.10317
G1 X138.855 Y113.459 E.01726
G1 X141.145 Y115.75 E.10317
G1 X141.145 Y116.292 E.01726
G1 X138.855 Y114.001 E.10317
G1 X138.855 Y114.543 E.01726
G1 X141.145 Y116.834 E.10317
G1 X141.145 Y117.375 E.01723
G1 X138.855 Y115.084 E.10317
G1 X138.855 Y115.626 E.01726
G1 X141.145 Y117.917 E.10317
G1 X141.145 Y118.459 E.01726
G1 X138.855 Y116.168 E.10317
G1 X138.855 Y116.709 E.01723
G1 X141.145 Y119 E.10317
G1 X141.145 Y119.542 E.01726
G1 X138.855 Y117.251 E.10317
G1 X138.855 Y117.793 E.01726
G1 X141.145 Y120.084 E.10317
G1 X141.145 Y120.626 E.01726
G1 X138.855 Y118.335 E.10317
G1 X138.855 Y118.876 E.01723
G1 X141.145 Y121.167 E.10317
G1 X141.145 Y121.709 E.01726
G1 X138.855 Y119.418 E.10317
G1 X138.855 Y119.96 E.01726
G1 X141.145 Y122.251 E.10317
G1 X141.145 Y122.792 E.01723
G1 X138.855 Y120.501 E.10317
G1 X138.855 Y121.043 E.01726
G1 X141.145 Y123.334 E.10317
G1 X141.145 Y123.645 E.00991
G1 X140.915 Y123.645 E.00733
G1 X138.855 Y121.585 E.09279
G1 X138.855 Y122.127 E.01726
G1 X140.373 Y123.645 E.06838
G1 X139.832 Y123.645 E.01723
G1 X138.855 Y122.668 E.04401
G1 X138.855 Y123.21 E.01726
G1 X139.46 Y123.815 E.02725
G1 E-6.3 F1200
;WIPE_START
G1 F7200
G1 X138.855 Y123.21 E-.13547
G1 X138.855 Y122.668 E-.08582
G1 X139.832 Y123.645 E-.21877
G1 X140.373 Y123.645 E-.08566
G1 X138.855 Y122.127 E-.33991
G1 X138.855 Y121.585 E-.08582
G1 X140.915 Y123.645 E-.46127
G1 X141.145 Y123.645 E-.03642
G1 X141.145 Y123.334 E-.04924
G1 X138.855 Y121.043 E-.51288
G1 X138.855 Y120.501 E-.08582
G1 X141.145 Y122.792 E-.51288
G1 X141.145 Y122.251 E-.08566
G1 X141.125 Y122.231 E-.00438
;WIPE_END
; stop printing object Form-Kubus id:1 copy 0
; printing object Form-Kubus id:0 copy 0
G1 X81.436 Y123.936 F9000
G1 E9 F2400
;TYPE:Perimeter
;WIDTH:0.419999
G1 F1080
G1 X78.564 Y123.936 E.09005
G1 X78.564 Y96.064 E.87391
G1 X81.436 Y96.064 E.09005
G1 X81.436 Y97.5 E.04502
G1 X81.436 Y123.876 E.827
G1 X81.436 Y123.876 F9000
G1 X81.813 Y124.313
G1 F1080
G1 X78.187 Y124.313 E.11369
G1 X78.187 Y95.687 E.89755
G1 X81.813 Y95.687 E.11369
G1 X81.813 Y97.5 E.05685
G1 X81.813 Y124.253 E.83882
G1 X82.19 Y124.69 F9000
;TYPE:External perimeter
G1 F1080
G1 X77.81 Y124.69 E.13733
G1 X77.81 Y95.31 E.92119
G1 X82.19 Y95.31 E.13733
G1 X82.19 Y97.5 E.06867
G1 X82.19 Y124.63 E.85064
G1 E-6.3 F1200
;WIPE_START
G1 F7200
G1 X82.19 Y124.69 E-.0095
G1 X77.81 Y124.69 E-.6935
G1 X77.81 Y112.077 E-1.997
;WIPE_END
G1 X81.315 Y96.96 F9000
G1 E9 F2400
;TYPE:Solid infill
;WIDTH:0.425971
G1 F1080
G1 X80.71 Y96.355 E.02725
G1 X80.168 Y96.355 E.01726
G1 X81.145 Y97.332 E.04401
G1 X81.145 Y97.874 E.01726
G1 X79.626 Y96.355 E.06842
G1 X79.085 Y96.355 E.01723
G1 X81.145 Y98.415 E.09279
G1 X81.145 Y98.957 E.01726
G1 X78.855 Y96.666 E.10317
G1 X78.855 Y97.208 E.01726
G1 X81.145 Y99.499 E.10317
G1 X81.145 Y100.04 E.01723
G1 X78.855 Y97.749 E.10317
G1 X78.855 Y98.291 E.01726
G1 X81.145 Y100.582 E.10317
G1 X81.145 Y101.124 E.01726
G1 X78.855 Y98.833 E.10317
G1 X78.855 Y99.375 E.01726
G1 X81.145 Y101.666 E.10317
G1 X81.145 Y102.207 E.01723
G1 X78.855 Y99.916 E.10317
G1 X78.855 Y100.458 E.01726
G1 X81.145 Y102.749 E.10317
G1 X81.145 Y103.291 E.01726
G1 X78.855 Y101 E.10317
G1 X78.855 Y101.541 E.01723
G1 X81.145 Y103.832 E.10317
G1 X81.145 Y104.374 E.01726
G1 X78.855 Y102.083 E.10317
G1 X78.855 Y102.625 E.01726
G1 X81.145 Y104.916 E.10317
G1 X81.145 Y105.458 E.01726
G1 X78.855 Y103.167 E.10317
G1 X78.855 Y103.708 E.01723
G1 X81.145 Y105.999 E.10317
G1 X81.145 Y106.541 E.01726
G1 X78.855 Y104.25 E.10317
G1 X78.855 Y104.792 E.01726
G1 X81.145 Y107.083 E.10317
G1 X81.145 Y107.624 E.01723
G1 X78.855 Y105.333 E.10317
G1 X78.855 Y105.875 E.01726
G1 X81.145 Y108.166 E.10317
G1 X81.145 Y108.708 E.01726
G1 X78.855 Y106.417 E.10317
G1 X78.855 Y106.959 E.01726
G1 X81.145 Y109.25 E.10317
G1 X81.145 Y109.791 E.01723
G1 X78.855 Y107.5 E.10317
G1 X78.855 Y108.042 E.01726
G1 X81.145 Y110.333 E.10317
G1 X81.145 Y110.875 E.01726
G1 X78.855 Y108.584 E.10317
G1 X78.855 Y109.125 E.01723
G1 X81.145 Y111.416 E.10317
G1 X81.145 Y111.958 E.01726
G1 X78.855 Y109.667 E.10317
G1 X78.855 Y110.209 E.01726
G1 X81.145 Y112.5 E.10317
G1 X81.145 Y113.042 E.01726
G1 X78.855 Y110.751 E.10317
G1 X78.855 Y111.292 E.01723
G1 X81.145 Y113.583 E.10317
G1 X81.145 Y114.125 E.01726
G1 X78.855 Y111.834 E.10317
G1 X78.855 Y112.376 E.01726
G1 X81.145 Y114.667 E.10317
G1 X81.145 Y115.208 E.01723
G1 X78.855 Y112.917 E.10317
G1 X78.855 Y113.459 E.01726
G1 X81.145 Y115.75 E.10317
G1 X81.145 Y116.292 E.01726
G1 X78.855 Y114.001 E.10317
G1 X78.855 Y114.543 E.01726
G1 X81.145 Y116.834 E.10317
G1 X81.145 Y117.375 E.01723
G1 X78.855 Y115.084 E.10317
G1 X78.855 Y115.626 E.01726
G1 X81.145 Y117.917 E.10317
G1 X81.145 Y118.459 E.01726
G1 X78.855 Y116.168 E.10317
G1 X78.855 Y116.709 E.01723
G1 X81.145 Y119 E.10317
G1 X81.145 Y119.542 E.01726
G1 X78.855 Y117.251 E.10317
G1 X78.855 Y117.793 E.01726
G1 X81.145 Y120.084 E.10317
G1 X81.145 Y120.626 E.01726
G1 X78.855 Y118.335 E.10317
G1 X78.855 Y118.876 E.01723
G1 X81.145 Y121.167 E.10317
G1 X81.145 Y121.709 E.01726
G1 X78.855 Y119.418 E.10317
G1 X78.855 Y119.96 E.01726
G1 X81.145 Y122.251 E.10317
G1 X81.145 Y122.792 E.01723
G1 X78.855 Y120.501 E.10317
G1 X78.855 Y121.043 E.01726
G1 X81.145 Y123.334 E.10317
G1 X81.145 Y123.645 E.00991
G1 X80.915 Y123.645 E.00733
G1 X78.855 Y121.585 E.09279
G1 X78.855 Y122.127 E.01726
G1 X80.373 Y123.645 E.06838
G1 X79.832 Y123.645 E.01723
G1 X78.855 Y122.668 E.04401
G1 X78.855 Y123.21 E.01726
G1 X79.46 Y123.815 E.02725
M106 S255
;LAYER_CHANGE
;Z:0.4
;HEIGHT:0.2
;BEFORE_LAYER_CHANGE
G92 E0
;0.4


G1 E-6.3 F1200
;WIPE_START
G1 F7200
G1 X78.855 Y123.21 E-.13547
G1 X78.855 Y122.668 E-.08582
G1 X79.832 Y123.645 E-.21877
G1 X80.373 Y123.645 E-.08566
G1 X78.855 Y122.127 E-.33991
G1 X78.855 Y121.585 E-.08582
G1 X80.915 Y123.645 E-.46127
G1 X81.145 Y123.645 E-.03642
G1 X81.145 Y123.334 E-.04924
G1 X78.855 Y121.043 E-.51288
G1 X78.855 Y120.501 E-.08582
G1 X81.145 Y122.792 E-.51288
G1 X81.145 Y122.251 E-.08566
G1 X81.125 Y122.231 E-.00438
;WIPE_END
G1 Z.4 F9000
;AFTER_LAYER_CHANGE
;0.4
; stop printing object Form-Kubus id:0 copy 0
G1 Z.4
G1 X81.125 Y128.377
G1 E9 F2400
;TYPE:Skirt/Brim
;WIDTH:0.42
G1 F1080
G1 X77.5 Y128.377 E.11366
G1 X75.917 Y127.983 E.05115
G1 X74.703 Y126.893 E.05116
G1 X74.123 Y125 E.06208
G1 X74.123 Y95 E.94063
G1 X74.517 Y93.417 E.05115
G1 X75.607 Y92.203 E.05116
G1 X77.5 Y91.623 E.06208
G1 X142.5 Y91.623 E2.03803
G1 X144.083 Y92.017 E.05115
G1 X145.297 Y93.107 E.05116
G1 X145.877 Y95 E.06208
G1 X145.877 Y125 E.94063
G1 X145.483 Y126.583 E.05115
G1 X144.393 Y127.797 E.05116
G1 X142.5 Y128.377 E.06208
G1 X81.185 Y128.377 E1.92249
G1 E-6.3 F1200
;WIPE_START
G1 F7200
G1 X81.125 Y128.377 E-.0095
G1 X77.5 Y128.377 E-.57396
G1 X75.917 Y127.983 E-.25829
G1 X74.703 Y126.893 E-.25833
G1 X74.123 Y125 E-.31348
G1 X74.123 Y116.875 E-1.28644
;WIPE_END
; printing object Form-Kubus id:1 copy 0
G1 X138.494 Y124.006 F9000
G1 E9 F2400
;TYPE:Perimeter
;WIDTH:0.439999
G1 F1080
G1 X138.494 Y95.994 E.92488
G1 X141.506 Y95.994 E.09945
G1 X141.506 Y97.5 E.04972
G1 X141.506 Y124.006 E.87516
G1 X138.554 Y124.006 E.09747
G1 X138.554 Y124.006 F9000
G1 X138.097 Y124.403
G1 F1080
G1 X138.097 Y95.597 E.95109
G1 X141.903 Y95.597 E.12566
G1 X141.903 Y97.5 E.06283
G1 X141.903 Y124.403 E.88826
G1 X138.157 Y124.403 E.12368
G1 X137.71 Y124.79 F9000
;TYPE:External perimeter
;WIDTH:0.419999
G1 F1080
G1 X137.71 Y95.21 E.92746
G1 X142.29 Y95.21 E.1436
G1 X142.29 Y97.5 E.0718
G1 X142.29 Y124.79 E.85566
G1 X137.77 Y124.79 E.14172
G1 E-6.3 F1200
;WIPE_START
G1 F7200
G1 X137.71 Y124.79 E-.0095
G1 X137.71 Y107.797 E-2.6905
;WIPE_END
G1 X141.2 Y96.3 F9000
G1 E9 F2400
;TYPE:Solid infill
;WIDTH:0.439999
G1 F1080
G1 X138.8 Y96.3 E.07924
G1 X138.8 Y123.7 E.90467
G1 X141.2 Y123.7 E.07924
G1 X141.2 Y96.498 E.89814
G1 X140.803 Y96.697 E.01466
G1 X139.197 Y96.697 E.05303
G1 X139.197 Y123.303 E.87846
G1 X140.803 Y123.303 E.05303
G1 X140.803 Y96.896 E.87189
G1 X140.406 Y97.094 E.01465
G1 X139.594 Y97.094 E.02681
G1 X139.594 Y122.906 E.85224
G1 X140.406 Y122.906 E.02681
G1 X140.406 Y97.293 E.84567
G1 X140 Y97.5 E.01505
;WIDTH:0.457712
G1 X140 Y122.5 E.86225
G1 E-6.3 F1200
;WIPE_START
G1 F7200
G1 X140 Y105.447 E-2.7
;WIPE_END
; stop printing object Form-Kubus id:1 copy 0
; printing object Form-Kubus id:0 copy 0
G1 X81.506 Y124.006 F9000
G1 E9 F2400
;TYPE:Perimeter
;WIDTH:0.439999
G1 F1080
G1 X78.494 Y124.006 E.09945
G1 X78.494 Y95.994 E.92488
G1 X81.506 Y95.994 E.09945
G1 X81.506 Y97.5 E.04972
G1 X81.506 Y123.946 E.87317
G1 X81.506 Y123.946 F9000
G1 X81.903 Y124.403
G1 F1080
G1 X78.097 Y124.403 E.12566
G1 X78.097 Y95.597 E.95109
G1 X81.903 Y95.597 E.12566
G1 X81.903 Y97.5 E.06283
G1 X81.903 Y124.343 E.88628
G1 X82.29 Y124.79 F9000
;TYPE:External perimeter
;WIDTH:0.419999
G1 F1080
G1 X77.71 Y124.79 E.1436
G1 X77.71 Y95.21 E.92746
G1 X82.29 Y95.21 E.1436
G1 X82.29 Y97.5 E.0718
G1 X82.29 Y124.73 E.85378
G1 E-6.3 F1200
;WIPE_START
G1 F7200
G1 X82.29 Y124.79 E-.0095
G1 X77.71 Y124.79 E-.72517
G1 X77.71 Y112.377 E-1.96533
;WIPE_END
G1 X81.2 Y96.3 F9000
G1 E9 F2400
;TYPE:Solid infill
;WIDTH:0.439999
G1 F1080
G1 X78.8 Y96.3 E.07924
G1 X78.8 Y123.7 E.90467
G1 X81.2 Y123.7 E.07924
G1 X81.2 Y96.498 E.89814
G1 X80.803 Y96.697 E.01466
G1 X79.197 Y96.697 E.05303
G1 X79.197 Y123.303 E.87846
G1 X80.803 Y123.303 E.05303
G1 X80.803 Y96.896 E.87189
G1 X80.406 Y97.094 E.01465
G1 X79.594 Y97.094 E.02681
G1 X79.594 Y122.906 E.85224
G1 X80.406 Y122.906 E.02681
G1 X80.406 Y97.293 E.84567
G1 X80 Y97.5 E.01505
;WIDTH:0.457712
G1 X80 Y122.5 E.86225
;LAYER_CHANGE
;Z:0.6
;HEIGHT:0.2
;BEFORE_LAYER_CHANGE
G92 E0
;0.6


G1 E-6.3 F1200
;WIPE_START
G1 F7200
G1 X80 Y105.447 E-2.7
;WIPE_END
G1 Z.6 F9000
;AFTER_LAYER_CHANGE
;0.6
G1 Z.6
; stop printing object Form-Kubus id:0 copy 0
; printing object Form-Kubus id:1 copy 0
G1 X138.494 Y95.994
G1 E9 F2400
;TYPE:Perimeter
;WIDTH:0.439999
G1 F1080
G1 X141.506 Y95.994 E.09945
G1 X141.506 Y97.5 E.04972
G1 X141.506 Y124.006 E.87516
G1 X138.494 Y124.006 E.09945
G1 X138.494 Y96.054 E.9229
G1 X138.494 Y96.054 F9000
G1 X138.097 Y95.597
G1 F1080
G1 X141.903 Y95.597 E.12566
G1 X141.903 Y97.5 E.06283
G1 X141.903 Y124.403 E.88826
G1 X138.097 Y124.403 E.12566
G1 X138.097 Y95.657 E.94911
G1 X137.71 Y95.21 F9000
;TYPE:External perimeter
;WIDTH:0.419999
G1 F1080
G1 X142.29 Y95.21 E.1436
G1 X142.29 Y97.5 E.0718
G1 X142.29 Y124.79 E.85566
G1 X137.71 Y124.79 E.1436
G1 X137.71 Y95.27 E.92558
G1 X138.8 Y96.3 F9000
;TYPE:Solid infill
;WIDTH:0.439999
G1 F1080
G1 X138.8 Y123.7 E.90467
G1 X141.2 Y123.7 E.07924
G1 X141.2 Y96.3 E.90467
G1 X138.998 Y96.3 E.0727
G1 X139.197 Y96.697 E.01466
G1 X139.197 Y123.303 E.87846
G1 X140.803 Y123.303 E.05303
G1 X140.803 Y96.697 E.87846
G1 X139.396 Y96.697 E.04646
G1 E-6.3 F1200
;WIPE_START
